dist/svg/u1F94D.svg

<?xml version="1.0" encoding="UTF-8"?><svg id="a" xmlns="http://www.w3.org/2000/svg" viewBox="0 0 40 40"><g><rect x="9.668" y="21.401" width="1.977" height="14.392" transform="translate(23.339 .839) rotate(44.994)" fill="#595959"/><rect x="2.211" y="33.094" width="4.933" height="2.96" rx="1.48" ry="1.48" transform="translate(25.814 6.817) rotate(44.994)" fill="#595959"/><path d="M33.055,15.394l1.666-.701c.19-.331,.356-.674,.492-1.029l-1.739,.731,1.679-3.992,.513-.216c-.025-.237-.082-.466-.13-.697-.004-.022-.008-.043-.012-.065-.08-.374-.189-.736-.324-1.09l-.627,1.49-3.992,1.678,1.679-3.992,2.061-.866c-.153-.214-.336-.408-.512-.606l-1.129,.475,.473-1.125c-.196-.175-.395-.347-.611-.502l-.861,2.047-3.993,1.678,1.679-3.991,1.503-.632c-.36-.135-.727-.241-1.104-.318-.021-.004-.042-.009-.064-.013-.234-.046-.468-.087-.706-.111l-.208,.495-3.992,1.678,.715-1.7c-.356,.137-.698,.302-1.031,.496l-.683,1.624-1.85,.778c-.22,.339-.412,.694-.574,1.063l2.004-.842-1.679,3.992-1.448,.609c-.115,.334-.241,.657-.371,.978l1.399-.588-1.679,3.992-2.335,.982c-.266,.315-.543,.619-.833,.909-.126,.126-.23,.265-.335,.404l3.083-1.296-1.679,3.992-1.915,.805c.095,.236,.221,.457,.374,.665l1.121-.471-.481,1.145c.204,.158,.423,.289,.657,.392l.823-1.957,3.993-1.679-1.333,3.171c.095-.077,.195-.143,.283-.231,.342-.342,.691-.663,1.044-.968l1.006-2.391,3.993-1.678-.542,1.29c.322-.131,.646-.252,.972-.357l.569-1.352,3.992-1.678-.847,2.015c.368-.159,.722-.347,1.06-.565l.786-1.87Zm-1.792-7.463l-1.679,3.992-3.993,1.678,1.679-3.992,3.993-1.679Zm-6.885-1.213l3.992-1.678-1.679,3.991-3.993,1.679,1.679-3.992Zm-2.099,4.99l3.993-1.679-1.679,3.992-3.993,1.679,1.679-3.992Zm-3.778,8.982l1.679-3.992,3.993-1.679-1.679,3.992-3.993,1.679Zm4.991-2.098l1.679-3.992,3.993-1.678-1.679,3.992-3.993,1.678Zm4.992-2.098l1.679-3.992,3.992-1.678-1.679,3.992-3.992,1.678Z" fill="#9bb8d7"/><path d="M15.021,24.181c-.067-.067-.132-.136-.196-.207-1.875-2.084-1.714-5.344,.366-7.424,1.899-1.899,3.206-4.434,3.881-7.533,.493-2.257,1.817-4.252,3.73-5.618,3.122-2.229,7.349-2.293,10.518-.157,2.357,1.593,3.867,4.1,4.136,6.883,.269,2.786-.711,5.516-2.688,7.493-1.393,1.393-3.157,2.294-5.1,2.605-2.519,.403-4.979,1.744-7.114,3.878-1.11,1.11-2.483,1.658-3.943,1.62-1.366-.036-2.63-.58-3.59-1.54ZM33.366,5.808c-.345-.345-.727-.66-1.142-.939-2.455-1.655-5.861-1.602-8.283,.126-1.517,1.083-2.566,2.661-2.954,4.441-.757,3.472-2.242,6.332-4.411,8.5-1.321,1.321-1.454,3.441-.295,4.727,.615,.691,1.463,1.076,2.381,1.099,.917,.024,1.78-.32,2.429-.969,2.506-2.506,5.339-4.037,8.268-4.505,1.532-.245,2.924-.956,4.024-2.055,1.562-1.561,2.336-3.719,2.123-5.918-.165-1.713-.926-3.295-2.139-4.507Z" fill="#1e6ef4"/><circle cx="29.164" cy="33.069" r="5.248" fill="#b7b7b7"/></g><rect x="0" width="40" height="40" fill="none"/></svg>

<svg id="Layer_1" data-name="Layer 1" xmlns="http://www.w3.org/2000/svg" viewBox="0 0 40 40"><defs><style>.cls-1{fill:#595959;}.cls-2{fill:#9bb8d7;}.cls-3{fill:#1e6ef4;}.cls-4{fill:#b7b7b7;}.cls-5{fill:none;}</style></defs><rect class="cls-1" x="9.668" y="21.401" width="1.977" height="14.392" transform="translate(23.339 0.839) rotate(44.994)"/><rect class="cls-1" x="2.211" y="33.094" width="4.933" height="2.96" rx="1.48" transform="translate(25.814 6.817) rotate(44.994)"/><path class="cls-2" d="M33.055,15.394l1.666-.7a7.46,7.46,0,0,0,.493-1.028l-1.739.731L35.154,10.4l.513-.216c-.025-.237-.082-.466-.13-.7,0-.021-.007-.043-.011-.065a7.344,7.344,0,0,0-.325-1.09l-.626,1.49L30.583,11.5l1.678-3.992,2.062-.866a7.553,7.553,0,0,0-.513-.607l-1.129.475.473-1.125a7.615,7.615,0,0,0-.61-.5l-.861,2.048L27.69,8.611,29.368,4.62l1.5-.632a7.312,7.312,0,0,0-1.1-.318L29.7,3.657A7,7,0,0,0,29,3.546l-.208.5L24.8,5.719l.715-1.7a7.114,7.114,0,0,0-1.03.5L23.8,6.139l-1.85.778a7.357,7.357,0,0,0-.574,1.063l2-.843L21.7,11.129l-1.448.609c-.115.334-.241.658-.371.978l1.4-.588L19.6,16.12l-2.335.981c-.266.315-.543.619-.833.909a3.758,3.758,0,0,0-.335.4l3.083-1.3L17.5,21.11l-1.915.8a3.072,3.072,0,0,0,.374.665l1.121-.472L16.6,23.253a3.133,3.133,0,0,0,.657.393l.823-1.957,3.993-1.679L20.74,23.181a3.476,3.476,0,0,0,.283-.231c.342-.342.691-.663,1.044-.969l1-2.391,3.993-1.678L26.523,19.2c.322-.131.646-.252.972-.357l.569-1.352,3.992-1.678-.847,2.015a7.384,7.384,0,0,0,1.06-.566ZM31.263,7.931l-1.679,3.992L25.591,13.6,27.27,9.61ZM24.378,6.718,28.37,5.039,26.691,9.031,22.7,10.71Zm-2.1,4.99,3.992-1.679-1.679,3.992L20.6,15.7ZM18.5,20.69,20.18,16.7l3.993-1.678-1.679,3.992Zm4.991-2.1L25.171,14.6l3.993-1.679-1.679,3.992Zm4.992-2.1L30.163,12.5l3.992-1.679-1.679,3.992Z"/><path class="cls-3" d="M15.021,24.181c-.067-.067-.132-.135-.2-.207a5.4,5.4,0,0,1,.366-7.423,14.9,14.9,0,0,0,3.881-7.533,9.323,9.323,0,1,1,15.7,8.6,9.239,9.239,0,0,1-5.1,2.6A13.134,13.134,0,0,0,22.554,24.1a5.294,5.294,0,0,1-3.943,1.619A5.225,5.225,0,0,1,15.021,24.181ZM33.366,5.808a7.712,7.712,0,0,0-1.141-.94A7.36,7.36,0,0,0,20.987,9.436a16.814,16.814,0,0,1-4.41,8.5,3.486,3.486,0,0,0-.3,4.727,3.316,3.316,0,0,0,4.81.131,15.181,15.181,0,0,1,8.268-4.506,7.352,7.352,0,0,0,6.146-7.973A7.36,7.36,0,0,0,33.366,5.808Z"/><circle class="cls-4" cx="29.164" cy="33.069" r="5.248"/><rect class="cls-5" width="40" height="40"/></svg>
